icons/inbox-circle.svg

<svg xmlns="http://www.w3.org/2000/svg" viewBox="0 0 24 24" fill="currentColor">
  <path d="M3.75 9c0-2.88579 2.36421-5.25 5.25-5.25h6c2.8858 0 5.25 2.36421 5.25 5.25v4.25h-4.575c-.3475-1.7117-1.8608-3-3.675-3-1.8142 0-3.32753 1.2883-3.67499 3H3.75V9Zm-1.5 5v1c0 3.7142 3.03579 6.75 6.75 6.75h6c3.7142 0 6.75-3.0358 6.75-6.75V9c0-3.71421-3.0358-6.75-6.75-6.75H9C5.28579 2.25 2.25 5.28579 2.25 9v5Zm1.5.75h4.57501c.34746 1.7117 1.86079 3 3.67499 3 1.8142 0 3.3275-1.2883 3.675-3h4.575V15c0 2.8858-2.3642 5.25-5.25 5.25H9c-2.88579 0-5.25-2.3642-5.25-5.25v-.25Zm6-.75c0 1.2426 1.0074 2.25 2.25 2.25s2.25-1.0074 2.25-2.25-1.0074-2.25-2.25-2.25S9.75 12.7574 9.75 14Z"/>
</svg>

<svg width="24" height="24" viewBox="0 0 24 24" fill="none" xmlns="http://www.w3.org/2000/svg">
<path fill-rule="evenodd" clip-rule="evenodd" d="M3.75 9C3.75 6.11421 6.11421 3.75 9 3.75H15C17.8858 3.75 20.25 6.11421 20.25 9V13.25H15.675C15.3275 11.5383 13.8142 10.25 12 10.25C10.1858 10.25 8.67247 11.5383 8.32501 13.25H3.75V9ZM2.25 14V15C2.25 18.7142 5.28579 21.75 9 21.75H15C18.7142 21.75 21.75 18.7142 21.75 15V14V9C21.75 5.28579 18.7142 2.25 15 2.25H9C5.28579 2.25 2.25 5.28579 2.25 9V14ZM3.75 14.75H8.32501C8.67247 16.4617 10.1858 17.75 12 17.75C13.8142 17.75 15.3275 16.4617 15.675 14.75H20.25V15C20.25 17.8858 17.8858 20.25 15 20.25H9C6.11421 20.25 3.75 17.8858 3.75 15V14.75ZM9.75 14C9.75 15.2426 10.7574 16.25 12 16.25C13.2426 16.25 14.25 15.2426 14.25 14C14.25 12.7574 13.2426 11.75 12 11.75C10.7574 11.75 9.75 12.7574 9.75 14Z" fill="black"/>
</svg>
